; G-Code generated by Simplify3D(R) Version 4.1.0
; Jun 16, 2020 at 6:23:43 PM
; Settings Summary
;   processName,Process1
;   applyToModels,tft35_mk_case_a,tft35_mk_case_b
;   profileName,Z9M3
;   profileVersion,2020-05-23 11:57:20
;   baseProfile,Default
;   printMaterial,PLA
;   printQuality,Medium
;   printExtruders,All Extruders
;   extruderName,Extruder 1,Extruder 2,Extruder 3
;   extruderToolheadNumber,0,1,2
;   extruderDiameter,0.4,0.4,0.4
;   extruderAutoWidth,0,0,1
;   extruderWidth,0.4,0.4,0.48
;   extrusionMultiplier,1.2,1.2,1.2
;   extruderUseRetract,1,1,1
;   extruderRetractionDistance,8,8,8
;   extruderExtraRestartDistance,0.15,0.15,0.15
;   extruderRetractionZLift,0,0,0
;   extruderRetractionSpeed,1800,1800,1800
;   extruderUseCoasting,0,0,0
;   extruderCoastingDistance,0.2,0.2,0.2
;   extruderUseWipe,1,0,1
;   extruderWipeDistance,5,3,1.5
;   primaryExtruder,0
;   layerHeight,0.2
;   topSolidLayers,3
;   bottomSolidLayers,3
;   perimeterOutlines,4
;   printPerimetersInsideOut,1
;   startPointOption,3
;   startPointOriginX,150
;   startPointOriginY,150
;   sequentialIslands,0
;   spiralVaseMode,0
;   firstLayerHeightPercentage,100
;   firstLayerWidthPercentage,120
;   firstLayerUnderspeed,0.6
;   useRaft,0
;   raftExtruder,0
;   raftTopLayers,2
;   raftBaseLayers,2
;   raftOffset,3
;   raftSeparationDistance,0.14
;   raftTopInfill,100
;   aboveRaftSpeedMultiplier,0.3
;   useSkirt,0
;   skirtExtruder,0
;   skirtLayers,1
;   skirtOutlines,2
;   skirtOffset,4
;   usePrimePillar,0
;   primePillarExtruder,999
;   primePillarWidth,12
;   primePillarLocation,7
;   primePillarSpeedMultiplier,1
;   useOozeShield,0
;   oozeShieldExtruder,999
;   oozeShieldOffset,2
;   oozeShieldOutlines,1
;   oozeShieldSidewallShape,1
;   oozeShieldSidewallAngle,30
;   oozeShieldSpeedMultiplier,1
;   infillExtruder,0
;   internalInfillPattern,Rectilinear
;   externalInfillPattern,Rectilinear
;   infillPercentage,30
;   outlineOverlapPercentage,15
;   infillExtrusionWidthPercentage,100
;   minInfillLength,5
;   infillLayerInterval,1
;   internalInfillAngles,45,-45
;   overlapInternalInfillAngles,0
;   externalInfillAngles,45,-45
;   generateSupport,0
;   supportExtruder,0
;   supportInfillPercentage,30
;   supportExtraInflation,0
;   supportBaseLayers,0
;   denseSupportExtruder,0
;   denseSupportLayers,0
;   denseSupportInfillPercentage,70
;   supportLayerInterval,1
;   supportHorizontalPartOffset,0.3
;   supportUpperSeparationLayers,1
;   supportLowerSeparationLayers,1
;   supportType,0
;   supportGridSpacing,4
;   maxOverhangAngle,45
;   supportAngles,0
;   temperatureName,Extruder 1,Heated Bed
;   temperatureNumber,0,0
;   temperatureSetpointCount,1,1
;   temperatureSetpointLayers,1,1
;   temperatureSetpointTemperatures,195,50
;   temperatureStabilizeAtStartup,1,1
;   temperatureHeatedBed,0,1
;   fanLayers,1,2
;   fanSpeeds,0,100
;   blipFanToFullPower,0
;   adjustSpeedForCooling,1
;   minSpeedLayerTime,15
;   minCoolingSpeedSlowdown,20
;   increaseFanForCooling,0
;   minFanLayerTime,45
;   maxCoolingFanSpeed,100
;   increaseFanForBridging,1
;   bridgingFanSpeed,100
;   use5D,1
;   relativeEdistances,1
;   allowEaxisZeroing,1
;   independentExtruderAxes,0
;   includeM10123,0
;   stickySupport,1
;   applyToolheadOffsets,0
;   gcodeXoffset,0
;   gcodeYoffset,0
;   gcodeZoffset,0
;   overrideMachineDefinition,1
;   machineTypeOverride,0
;   strokeXoverride,300
;   strokeYoverride,300
;   strokeZoverride,385
;   originOffsetXoverride,0
;   originOffsetYoverride,0
;   originOffsetZoverride,0
;   homeXdirOverride,-1
;   homeYdirOverride,-1
;   homeZdirOverride,-1
;   flipXoverride,1
;   flipYoverride,-1
;   flipZoverride,1
;   toolheadOffsets,0,0|0,0|0,0|0,0|0,0|0,0
;   overrideFirmwareConfiguration,0
;   firmwareTypeOverride,RepRap (Marlin/Repetier/Sprinter)
;   GPXconfigOverride,r2
;   baudRateOverride,115200
;   overridePrinterModels,0
;   printerModelsOverride
;   startingGcode,G28 ; home all axes,M209 S1,G1 Z5 F3000 ; lift,G1 X5 Y10 F1500 ; move to prime,G1 Z0.2 F3000 ; get ready to prime,G92 E0 ; reset extrusion distance,G1 Y150 E15 F600 ; prime nozzle,G1 Y100 F5000 ; quick wipe
;   layerChangeGcode,
;   retractionGcode,
;   toolChangeGcode,
;   endingGcode,G28 X0 Y0,M106 S0 ; turn off FAN,M104 S0 ; turn off extruder,M140 S0 ; turn off bed,M84 ; disable motors
;   exportFileFormat,gcode
;   celebration,0
;   celebrationSong,Random Song
;   postProcessing,
;   defaultSpeed,3000
;   outlineUnderspeed,0.5
;   solidInfillUnderspeed,0.8
;   supportUnderspeed,0.8
;   rapidXYspeed,6000
;   rapidZspeed,480
;   minBridgingArea,50
;   bridgingExtraInflation,0
;   bridgingExtrusionMultiplier,1
;   bridgingSpeedMultiplier,1
;   useFixedBridgingAngle,0
;   fixedBridgingAngle,0
;   applyBridgingToPerimeters,0
;   filamentDiameters,1.75|1.75|1.75|1.75|1.75|1.75
;   filamentPricesPerKg,46|46|46|46|46|46
;   filamentDensities,1.25|1.25|1.25|1.25|1.25|1.25
;   useMinPrintHeight,0
;   minPrintHeight,1
;   useMaxPrintHeight,0
;   maxPrintHeight,10
;   useDiaphragm,0
;   diaphragmLayerInterval,20
;   robustSlicing,1
;   mergeAllIntoSolid,0
;   onlyRetractWhenCrossingOutline,1
;   retractBetweenLayers,0
;   useRetractionMinTravel,1
;   retractionMinTravel,0.5
;   retractWhileWiping,0
;   onlyWipeOutlines,1
;   avoidCrossingOutline,1
;   maxMovementDetourFactor,8
;   toolChangeRetractionDistance,12
;   toolChangeExtraRestartDistance,-0.5
;   toolChangeRetractionSpeed,600
;   externalThinWallType,0
;   internalThinWallType,2
;   thinWallAllowedOverlapPercentage,10
;   singleExtrusionMinLength,1
;   singleExtrusionMinPrintingWidthPercentage,50
;   singleExtrusionMaxPrintingWidthPercentage,200
;   singleExtrusionEndpointExtension,0.2
;   horizontalSizeCompensation,0
G90
M83
M106 S0
M140 S50
M190 S50
M104 S195 T0
M109 S195 T0
G28 ; home all axes
M209 S1
G1 Z5 F3000 ; lift
G1 X5 Y10 F1500 ; move to prime
G1 Z0.2 F3000 ; get ready to prime
G92 E0 ; reset extrusion distance
G1 Y150 E15 F600 ; prime nozzle
G1 Y100 F5000 ; quick wipe
; process Process1
; layer 1, Z = 0.200
T0
; feature inner perimeter
; tool H0.200 W0.480
G1 Z0.200 F480
G1 X206.320 Y144.107 F6000
G1 X93.680 Y144.107 E5.3948 F1350
G1 X93.680 Y63.262 E3.8721
G1 X93.713 Y62.924 E0.0162
G1 X93.789 Y62.676 E0.0124
G1 X93.909 Y62.450 E0.0123
G1 X94.072 Y62.251 E0.0123
G1 X94.271 Y62.088 E0.0123
G1 X94.498 Y61.967 E0.0123
G1 X94.743 Y61.893 E0.0123
G1 X95.083 Y61.859 E0.0163
G1 X204.917 Y61.859 E5.2605
G1 X205.257 Y61.893 E0.0163
G1 X205.502 Y61.967 E0.0123
G1 X205.729 Y62.088 E0.0123
G1 X205.928 Y62.251 E0.0123
G1 X206.091 Y62.450 E0.0123
G1 X206.212 Y62.677 E0.0123
G1 X206.286 Y62.922 E0.0123
G1 X206.320 Y63.262 E0.0163
G1 X206.320 Y144.107 E3.8721
G1 X93.200 Y144.587 F6000
G1 X93.200 Y63.238 E3.8962 F1350
G1 X93.240 Y62.830 E0.0196
G1 X93.343 Y62.492 E0.0169
G1 X93.508 Y62.182 E0.0168
G1 X93.731 Y61.910 E0.0169
G1 X94.004 Y61.687 E0.0169
G1 X94.314 Y61.521 E0.0168
G1 X94.649 Y61.420 E0.0168
G1 X95.059 Y61.379 E0.0198
G1 X204.941 Y61.379 E5.2627
G1 X205.351 Y61.420 E0.0198
G1 X205.686 Y61.522 E0.0168
G1 X205.996 Y61.687 E0.0168
G1 X206.269 Y61.910 E0.0169
G1 X206.492 Y62.182 E0.0169
G1 X206.657 Y62.493 E0.0168
G1 X206.759 Y62.828 E0.0168
G1 X206.800 Y63.238 E0.0198
G1 X206.800 Y144.587 E3.8962
G1 X93.200 Y144.587 E5.4408
G1 X207.280 Y145.067 F6000
G1 X92.720 Y145.067 E5.4868 F1350
G1 X92.720 Y63.215 E3.9203
G1 X92.767 Y62.736 E0.0230
G1 X92.897 Y62.308 E0.0214
G1 X93.107 Y61.915 E0.0213
G1 X93.390 Y61.569 E0.0214
G1 X93.736 Y61.286 E0.0214
G1 X94.129 Y61.076 E0.0214
G1 X94.554 Y60.947 E0.0213
G1 X95.036 Y60.899 E0.0232
G1 X204.964 Y60.899 E5.2650
G1 X205.446 Y60.947 E0.0232
G1 X205.871 Y61.076 E0.0213
G1 X206.264 Y61.286 E0.0214
G1 X206.610 Y61.569 E0.0214
G1 X206.893 Y61.915 E0.0214
G1 X207.103 Y62.308 E0.0214
G1 X207.232 Y62.733 E0.0213
G1 X207.280 Y63.214 E0.0232
G1 X207.280 Y145.067 E3.9203
; feature outer perimeter
G1 X207.760 Y145.547 F6000
G1 X92.240 Y145.547 E5.5328 F900
G1 X92.240 Y63.191 E3.9444
G1 X92.294 Y62.642 E0.0264
G1 X92.452 Y62.123 E0.0260
G1 X92.706 Y61.647 E0.0259
G1 X93.049 Y61.228 E0.0259
G1 X93.468 Y60.885 E0.0259
G1 X93.944 Y60.630 E0.0259
G1 X94.460 Y60.474 E0.0258
G1 X95.012 Y60.419 E0.0266
G1 X204.988 Y60.419 E5.2673
G1 X205.540 Y60.474 E0.0266
G1 X206.056 Y60.630 E0.0258
G1 X206.532 Y60.885 E0.0259
G1 X206.951 Y61.228 E0.0259
G1 X207.294 Y61.647 E0.0259
G1 X207.549 Y62.123 E0.0259
G1 X207.705 Y62.639 E0.0258
G1 X207.760 Y63.191 E0.0266
G1 X207.760 Y145.547 E3.9444
G1 X202.760 Y145.547 F900
; feature inner perimeter
G1 X104.320 Y126.359 F6000
G1 X195.680 Y126.359 E4.3757 F1350
G1 X195.680 Y64.999 E2.9388
G1 X104.320 Y64.999 E4.3757
G1 X104.320 Y126.359 E2.9388
G1 X195.200 Y125.879 F6000
G1 X195.200 Y65.479 E2.8928 F1350
G1 X104.800 Y65.479 E4.3297
G1 X104.800 Y125.879 E2.8928
G1 X195.200 Y125.879 E4.3297
G1 X105.280 Y125.399 F6000
G1 X194.720 Y125.399 E4.2837 F1350
G1 X194.720 Y65.959 E2.8469
G1 X105.280 Y65.959 E4.2837
G1 X105.280 Y125.399 E2.8469
; feature outer perimeter
G1 X105.760 Y124.919 F6000
G1 X194.240 Y124.919 E4.2377 F900
G1 X194.240 Y66.439 E2.8009
G1 X105.760 Y66.439 E4.2377
G1 X105.760 Y124.919 E2.8009
G1 X110.760 Y124.919 F900
; feature solid layer
G1 X104.366 Y126.767 F6000
G1 X121.298 Y143.699 E1.1469 F1440
G1 X121.977 Y143.699 E0.0325
G1 X105.045 Y126.767 E1.1469
G1 X105.723 Y126.767 E0.0325
G1 X122.656 Y143.699 E1.1469
G1 X123.335 Y143.699 E0.0325
G1 X106.402 Y126.767 E1.1469
G1 X107.081 Y126.767 E0.0325
G1 X124.013 Y143.699 E1.1469
G1 X124.692 Y143.699 E0.0325
G1 X107.760 Y126.767 E1.1469
G1 X108.439 Y126.767 E0.0325
G1 X125.371 Y143.699 E1.1469
G1 X126.050 Y143.699 E0.0325
G1 X109.118 Y126.767 E1.1469
G1 X109.796 Y126.767 E0.0325
G1 X126.729 Y143.699 E1.1469
G1 X127.407 Y143.699 E0.0325
G1 X110.475 Y126.767 E1.1469
G1 X111.154 Y126.767 E0.0325
G1 X128.086 Y143.699 E1.1469
G1 X128.765 Y143.699 E0.0325
G1 X111.833 Y126.767 E1.1469
G1 X112.512 Y126.767 E0.0325
G1 X129.444 Y143.699 E1.1469
G1 X130.123 Y143.699 E0.0325
G1 X113.190 Y126.767 E1.1469
G1 X113.869 Y126.767 E0.0325
G1 X130.802 Y143.699 E1.1469
G1 X131.480 Y143.699 E0.0325
G1 X114.548 Y126.767 E1.1469
G1 X115.227 Y126.767 E0.0325
G1 X132.159 Y143.699 E1.1469
G1 X132.838 Y143.699 E0.0325
G1 X115.906 Y126.767 E1.1469
G1 X116.585 Y126.767 E0.0325
G1 X133.517 Y143.699 E1.1469
G1 X134.196 Y143.699 E0.0325
G1 X117.263 Y126.767 E1.1469
G1 X117.942 Y126.767 E0.0325
G1 X134.874 Y143.699 E1.1469
G1 X135.553 Y143.699 E0.0325
G1 X118.621 Y126.767 E1.1469
G1 X119.300 Y126.767 E0.0325
G1 X136.232 Y143.699 E1.1469
G1 X136.911 Y143.699 E0.0325
G1 X119.979 Y126.767 E1.1469
G1 X120.658 Y126.767 E0.0325
G1 X137.590 Y143.699 E1.1469
G1 X138.269 Y143.699 E0.0325
G1 X121.336 Y126.767 E1.1469
G1 X122.015 Y126.767 E0.0325
G1 X138.947 Y143.699 E1.1469
G1 X139.626 Y143.699 E0.0325
G1 X122.694 Y126.767 E1.1469
G1 X123.373 Y126.767 E0.0325
G1 X140.305 Y143.699 E1.1469
G1 X140.984 Y143.699 E0.0325
G1 X124.052 Y126.767 E1.1469
G1 X124.730 Y126.767 E0.0325
G1 X141.663 Y143.699 E1.1469
G1 X142.342 Y143.699 E0.0325
G1 X125.409 Y126.767 E1.1469
G1 X126.088 Y126.767 E0.0325
G1 X143.020 Y143.699 E1.1469
G1 X143.699 Y143.699 E0.0325
G1 X126.767 Y126.767 E1.1469
G1 X127.446 Y126.767 E0.0325
G1 X144.378 Y143.699 E1.1469
G1 X145.057 Y143.699 E0.0325
G1 X128.125 Y126.767 E1.1469
G1 X128.803 Y126.767 E0.0325
G1 X145.736 Y143.699 E1.1469
G1 X146.414 Y143.699 E0.0325
G1 X129.482 Y126.767 E1.1469
G1 X130.161 Y126.767 E0.0325
G1 X147.093 Y143.699 E1.1469
G1 X147.772 Y143.699 E0.0325
G1 X130.840 Y126.767 E1.1469
G1 X131.519 Y126.767 E0.0325
G1 X148.451 Y143.699 E1.1469
G1 X149.130 Y143.699 E0.0325
G1 X132.198 Y126.767 E1.1469
G1 X132.876 Y126.767 E0.0325
G1 X149.809 Y143.699 E1.1469
G1 X150.487 Y143.699 E0.0325
G1 X133.555 Y126.767 E1.1469
G1 X134.234 Y126.767 E0.0325
G1 X151.166 Y143.699 E1.1469
G1 X151.845 Y143.699 E0.0325
G1 X134.913 Y126.767 E1.1469
G1 X135.592 Y126.767 E0.0325
G1 X152.524 Y143.699 E1.1469
G1 X153.203 Y143.699 E0.0325
G1 X136.270 Y126.767 E1.1469
G1 X136.949 Y126.767 E0.0325
G1 X153.882 Y143.699 E1.1469
G1 X154.560 Y143.699 E0.0325
G1 X137.628 Y126.767 E1.1469
G1 X138.307 Y126.767 E0.0325
G1 X155.239 Y143.699 E1.1469
G1 X155.918 Y143.699 E0.0325
G1 X138.986 Y126.767 E1.1469
G1 X139.665 Y126.767 E0.0325
G1 X156.597 Y143.699 E1.1469
G1 X157.276 Y143.699 E0.0325
G1 X140.343 Y126.767 E1.1469
G1 X141.022 Y126.767 E0.0325
G1 X157.954 Y143.699 E1.1469
G1 X158.633 Y143.699 E0.0325
G1 X141.701 Y126.767 E1.1469
G1 X142.380 Y126.767 E0.0325
G1 X159.312 Y143.699 E1.1469
G1 X159.991 Y143.699 E0.0325
G1 X143.059 Y126.767 E1.1469
G1 X143.738 Y126.767 E0.0325
G1 X160.670 Y143.699 E1.1469
G1 X161.349 Y143.699 E0.0325
G1 X144.416 Y126.767 E1.1469
G1 X145.095 Y126.767 E0.0325
G1 X162.027 Y143.699 E1.1469
G1 X162.706 Y143.699 E0.0325
G1 X145.774 Y126.767 E1.1469
G1 X146.453 Y126.767 E0.0325
G1 X163.385 Y143.699 E1.1469
G1 X164.064 Y143.699 E0.0325
G1 X147.132 Y126.767 E1.1469
G1 X147.810 Y126.767 E0.0325
G1 X164.743 Y143.699 E1.1469
G1 X165.422 Y143.699 E0.0325
G1 X148.489 Y126.767 E1.1469
G1 X149.168 Y126.767 E0.0325
G1 X166.100 Y143.699 E1.1469
G1 X166.779 Y143.699 E0.0325
G1 X149.847 Y126.767 E1.1469
G1 X150.526 Y126.767 E0.0325
G1 X167.458 Y143.699 E1.1469
G1 X168.137 Y143.699 E0.0325
G1 X151.205 Y126.767 E1.1469
G1 X151.883 Y126.767 E0.0325
G1 X168.816 Y143.699 E1.1469
G1 X169.494 Y143.699 E0.0325
G1 X152.562 Y126.767 E1.1469
G1 X153.241 Y126.767 E0.0325
G1 X170.173 Y143.699 E1.1469
G1 X170.852 Y143.699 E0.0325
G1 X153.920 Y126.767 E1.1469
G1 X154.599 Y126.767 E0.0325
G1 X171.531 Y143.699 E1.1469
G1 X172.210 Y143.699 E0.0325
G1 X155.277 Y126.767 E1.1469
G1 X155.956 Y126.767 E0.0325
G1 X172.889 Y143.699 E1.1469
G1 X173.567 Y143.699 E0.0325
G1 X156.635 Y126.767 E1.1469
G1 X157.314 Y126.767 E0.0325
G1 X174.246 Y143.699 E1.1469
G1 X174.925 Y143.699 E0.0325
G1 X157.993 Y126.767 E1.1469
G1 X158.672 Y126.767 E0.0325
G1 X175.604 Y143.699 E1.1469
G1 X176.283 Y143.699 E0.0325
G1 X159.350 Y126.767 E1.1469
G1 X160.029 Y126.767 E0.0325
G1 X176.961 Y143.699 E1.1469
G1 X177.640 Y143.699 E0.0325
G1 X160.708 Y126.767 E1.1469
G1 X161.387 Y126.767 E0.0325
G1 X178.319 Y143.699 E1.1469
G1 X178.998 Y143.699 E0.0325
G1 X162.066 Y126.767 E1.1469
G1 X162.745 Y126.767 E0.0325
G1 X179.677 Y143.699 E1.1469
G1 X180.356 Y143.699 E0.0325
G1 X163.423 Y126.767 E1.1469
G1 X164.102 Y126.767 E0.0325
G1 X181.034 Y143.699 E1.1469
G1 X181.713 Y143.699 E0.0325
G1 X164.781 Y126.767 E1.1469
G1 X165.460 Y126.767 E0.0325
G1 X182.392 Y143.699 E1.1469
G1 X183.071 Y143.699 E0.0325
G1 X166.139 Y126.767 E1.1469
G1 X166.817 Y126.767 E0.0325
G1 X183.750 Y143.699 E1.1469
G1 X184.429 Y143.699 E0.0325
G1 X167.496 Y126.767 E1.1469
G1 X168.175 Y126.767 E0.0325
G1 X185.107 Y143.699 E1.1469
G1 X185.786 Y143.699 E0.0325
G1 X168.854 Y126.767 E1.1469
G1 X169.533 Y126.767 E0.0325
G1 X186.465 Y143.699 E1.1469
G1 X187.144 Y143.699 E0.0325
G1 X170.212 Y126.767 E1.1469
G1 X170.890 Y126.767 E0.0325
G1 X187.823 Y143.699 E1.1469
G1 X188.501 Y143.699 E0.0325
G1 X171.569 Y126.767 E1.1469
G1 X172.248 Y126.767 E0.0325
G1 X189.180 Y143.699 E1.1469
G1 X189.859 Y143.699 E0.0325
G1 X172.927 Y126.767 E1.1469
G1 X173.606 Y126.767 E0.0325
G1 X190.538 Y143.699 E1.1469
G1 X191.217 Y143.699 E0.0325
G1 X174.285 Y126.767 E1.1469
G1 X174.963 Y126.767 E0.0325
G1 X191.896 Y143.699 E1.1469
G1 X192.574 Y143.699 E0.0325
G1 X175.642 Y126.767 E1.1469
G1 X176.321 Y126.767 E0.0325
G1 X193.253 Y143.699 E1.1469
G1 X193.932 Y143.699 E0.0325
G1 X177.000 Y126.767 E1.1469
